X:1
T:Deux cueurs voulans
T:Pierre Sandrin
T:Source : Livre V de 25 chansons nouvelles à 4 parties---Paris---P.Attaingnant---1540. Editor : André Vierendeels (07/05/18) Notes : Original clefs : G2, C3, C3, F4 Original note values have been halved Editorial accidentals above the staff
T:#
T:Deux cueurs voulans
T:©
T:©
T:©
T:©
C:Pierre Sandrin
Z:©
%%score [ 1 2 3 4 ]
L:1/8
Q:1/4=120
M:2/2
K:C
V:1 treble nm="Soprano" snm="S"
V:2 treble nm="Alto" snm="A"
V:3 treble-8 nm="Tenor" snm="T 2"
V:4 bass nm="Bass" snm="B"
V:1
 z8 | A4 A2 A2 | d4 c4 | f2 f2 e2 d2- | d2 c2 d4 | z2 A2 B4 | B4 c4 | z2 c2 c2 c2 |"^#" B2 A4 G2 | %9
w: |Deux cueurs vou-|lans par|fer- me- té lou-|* a- ble,|ay- mer|hon- neur|a- vec- que|leur plai- *|
w: |Cher- chans l'a-|mour en|ces faictz ho- no|_ ra- ble,|ont faict|leur bien|es- gal à|leur de- *|
 A8 :: G8 | A2 G2 G4 | B8 | B2 B2 cBAG | A2 A2 G4 | A8 | d2 c2 c4 | B4 B2 B2 | c3 B A2 G2 | F4 E4 | %20
w: sir,|or,|donc- que'a- mantz,|ne|pre- nez de _ _ _|_ plai- sir,|de|tant souf- frir|et con- tens|le _ _ con-|gnois- tre,|
w: sir,|||||||||||
 z2 E2 E2 E2 | F4 G4- | G4 AGAB | c2 c2 B2 A2- | A2 G2 A2 G2 | G2 G2 A2 GF | G2 B2 B2 B2 | %27
w: car si vou-|lez l'a-|* mour _ _ _|_ ain- sy choi-|* * sir, au-|tant com me'eulx _ ,|_ heu- reux vous|
w: |||||||
 c2 B3 A A2- | A2 G2 A2 c2 | c2 c2 d2 cB | c4 c4 | c2 B2 A2 d2- |"^#" d2 c2 d4- | d8 :| %34
w: pour- rez- * es-|* * stre, au-|tant com- me'eulx, _ _|_ heu-|reux vous pour- rez|_ es- tre.|_|
w: |||||||
V:2
 F4 F2 F2 | F4 E4 | A6 A2 | A4 A4 | A4 F4 | z2 F2 G4 | G4 G4 | z2 G2 A2 G2 | F4 E4 | E8 :: E8 | %11
w: Deux cueurs vou-|lans par|fer- me-|té lou-|a- ble,|ay- mer|hon- neur|a- vec- que|leur plai-|sir,|or,|
w: Cher- chans l'a-|mour en|ces faictz|ho- no-|ra- ble,|ont faict|leur bien|es- gal à|leur de-|sir,||
 D2 D2 E4 | G8 | G2 G2 F2 E2- | E2 D2 E4 | F8 | A2 A2 G4- | G4 z2 E2 | E2 E2 F2 C2 | D4 G,2 G,2 | %20
w: donc- que'a- mantz,|ne|pre- nez de plai-|* * sir,|de|tant souf- frir|_ et|con- tens le con-|gnois- tre, car|
w: |||||||||
 A,2 A,B, CD E2- | E2 D2 E4 | E4 FEFG | A2 A2 G2 E2 | E4 z2 E2 | E2 E2 E4 | E4 G4- | G2 F2 E2 D2 | %28
w: si vou- * * * *|* * lez|l'a- mour _ _ _|_ ain- sy choi-|sir, au-|tant com- me'eulx,|heu- reux|_ vous pour- rez|
w: ||||||||
 E4 C4 | z2 A2 A2 A2 | A4 A4 | A2 G2 E2 G2 | A4 A4- | A8 :| %34
w: es- tre,|au- tant com-|me'eulx, heu-|reux vous pour- rez|es- tre.|_|
w: ||||||
V:3
 A4 A2 A2 | d4 c4 | f6 f2 | cBcd e2 f2 | e4 d4- | d4 z2 d2 | e2 e2 edcB | A2 e2 f2 e2 | d3 c B4 | %9
w: Deux cueurs vou-|lans par|fer- me-|té _ _ _ _ lou-|a- ble,|_ ay-|mer hon- neur _ _ _|_ a- vec- que|leur _ plai-|
w: Cher- chans l'a-|mour en|ces faictz|ho- * * * * no-|ra- ble,|_ ont|faict leur bien _ _ _|_ es- gal à|leur _ de-|
 A8 :: B8 | A2 B2 c4 | d4 d2 d2 | e2 d2 c4- | c2 BA B4 | d8 | f2 f2 e4 | z2 e2 e2 e2 | %18
w: sir,|or,|donc- que'a- mantz,|ne pre- nez|de plai- *|* * * sir|de|tant souf- frir|et con- tens|
w: sir,|||||||||
 cdec dc c2- | c2 B2 c4- | c4 z2 A2 | A2 A2 c4 | c8 | f3 e d2 c2 | B4 z2 B2 | B2 B2 c4 | B4 e2 e2 | %27
w: le _ _ _ _ _ con-|* gnois- tre,|_ car|si vou- lez|l'a-|mour ain- sy choi-|sir, au-|tant com- me'eulx,|heu- reux vous|
w: |||||||||
 e2 d2 c2 BA | B4 A2 e2 | e2 e2 f4 | z2 e2 e2 e2 | f2 ed c2 d2 | e4 d4- | d8 :| %34
w: pour- rez es- * *|* tre, au-|tant com- me'eulx,|heu- reux vous|pour- * * rez es-|* tre.|_|
w: |||||||
V:4
 D,4 D,2 D,2 | D,E,F,G, A,4 | D,4 z2 F,2 | F,2 F,2 C,2 D,2 | A,4 D,4 | z2 D,2 G,2 G,2 | %6
w: Deux cueurs vou-|lans , _ _ _|_ par|fer- me- té lou-|a- ble,|ay- mer hon-|
w: Cher- chant l'a-|mour _ _ _ _|_ en|ces faictz ho- no-|ra- ble,|ont faict leur|
 G,F,E,D, C,4 | z2 C,2 F,2 C,2 | D,4 E,4 | A,,8 :: E,8 | F,2 G,2 C,4 | G,8 | G,2 G,2 A,G,F,E, | %14
w: neur _ _ _ _|a- vec- que|leur plai-|sir,|or,|donc- qu'a- mantz,|ne|pre- nez de _ _ _|
w: bien _ _ _ _|es- gal à|leur de-|sir,|||||
 F,2 F,2 E,4 | D,8 | D,2 F,2 C,B,,C,D, | E,2 E,2 E,2 E,2 | A,3 G, F,2 E,2 | D,4 C,4 | %20
w: _ plai- sir|de|tant souf- frir _ _ _|_ et con- tens|le _ _ con-|gnois- tre,|
w: ||||||
 z2 A,,2 A,,2 A,,2 | D,4 C,4- | C,4 F,4- | F,2 F,2 G,2 A,2 | E,4 z2 E,2 | E,2 E,2 A,,B,,C,D, | %26
w: car si vou-|lez l'a-|* mour|_ ain- sy choi-|sir, au-|tant com- mr'eulx _ _ ,|
w: ||||||
 E,4 z2 E,2 | C,2 D,2 E,2 F,2 | E,4 A,,2 A,2 | A,2 A,2 D,E,F,G, | A,4 z2 A,2 | %31
w: _ heu-|reux vous pour- rez|es- tre, au-|tant com- me'eulx _ , _|_ heu-|
w: |||||
"^b" F,2 G,2 A,2 B,2 | A,4 D,4- | D,8 :| %34
w: reux vous pour- rez|es- tre.|_|
w: |||

